actions/48/edit-find.svg

<?xml version="1.0" encoding="UTF-8" standalone="no"?>
<!-- Created with Inkscape (http://www.inkscape.org/) -->

<svg
   xmlns:svg="http://www.w3.org/2000/svg"
   xmlns="http://www.w3.org/2000/svg"
   xmlns:xlink="http://www.w3.org/1999/xlink"
   version="1.1"
   width="48"
   height="48"
   id="svg3294">
  <defs
     id="defs3296">
    <linearGradient
       id="linearGradient8838">
      <stop
         id="stop8840"
         style="stop-color:#7f7f7f;stop-opacity:1"
         offset="0" />
      <stop
         id="stop8842"
         style="stop-color:gray;stop-opacity:0"
         offset="1" />
    </linearGradient>
    <radialGradient
       cx="62.625"
       cy="4.625"
       r="10.625"
       fx="62.625"
       fy="4.625"
       id="radialGradient2759"
       xlink:href="#linearGradient8838"
       gradientUnits="userSpaceOnUse"
       gradientTransform="matrix(1,0,0,0.341176,0,3.047059)" />
    <linearGradient
       id="linearGradient3277-442">
      <stop
         id="stop3378"
         style="stop-color:#575757;stop-opacity:1"
         offset="0" />
      <stop
         id="stop3380"
         style="stop-color:#333;stop-opacity:1"
         offset="1" />
    </linearGradient>
    <linearGradient
       x1="32.892574"
       y1="27.988184"
       x2="31.364458"
       y2="29.484051"
       id="linearGradient2782"
       xlink:href="#linearGradient3277-442"
       gradientUnits="userSpaceOnUse"
       gradientTransform="matrix(1.0113456,0,0,1.0013346,-0.1475723,1.8143278)" />
    <linearGradient
       id="linearGradient11114-516">
      <stop
         id="stop3372"
         style="stop-color:#242424;stop-opacity:0.99215686"
         offset="0" />
      <stop
         id="stop3374"
         style="stop-color:#656565;stop-opacity:1"
         offset="1" />
    </linearGradient>
    <linearGradient
       x1="-172.65306"
       y1="99.667191"
       x2="-164.71831"
       y2="91.972626"
       id="linearGradient2780"
       xlink:href="#linearGradient11114-516"
       gradientUnits="userSpaceOnUse"
       gradientTransform="matrix(0.3936567,0,0,0.38976,101.37812,-4.2393119)" />
    <linearGradient
       id="linearGradient12093-170">
      <stop
         id="stop3384"
         style="stop-color:white;stop-opacity:1"
         offset="0" />
      <stop
         id="stop3386"
         style="stop-color:white;stop-opacity:0"
         offset="1" />
    </linearGradient>
    <linearGradient
       x1="277.573"
       y1="146.1507"
       x2="201.87128"
       y2="67.350082"
       id="linearGradient2778"
       xlink:href="#linearGradient12093-170"
       gradientUnits="userSpaceOnUse"
       gradientTransform="matrix(0.3936567,0,0,0.38976,-50.208746,-0.4726547)" />
    <linearGradient
       id="linearGradient4454-600">
      <stop
         id="stop3408"
         style="stop-color:#a1a1a1;stop-opacity:0.20784314"
         offset="0" />
      <stop
         id="stop3410"
         style="stop-color:#a1a1a1;stop-opacity:0.67843139"
         offset="1" />
    </linearGradient>
    <radialGradient
       cx="18.240929"
       cy="21.817987"
       r="8.3085051"
       fx="18.240929"
       fy="21.817987"
       id="radialGradient2776"
       xlink:href="#linearGradient4454-600"
       gradientUnits="userSpaceOnUse" />
    <linearGradient
       id="linearGradient4467-402">
      <stop
         id="stop3390"
         style="stop-color:white;stop-opacity:1"
         offset="0" />
      <stop
         id="stop3392"
         style="stop-color:white;stop-opacity:0.24761905"
         offset="1" />
    </linearGradient>
    <radialGradient
       cx="15.414371"
       cy="13.078408"
       r="6.65625"
       fx="15.414371"
       fy="13.078408"
       id="radialGradient2774"
       xlink:href="#linearGradient4467-402"
       gradientUnits="userSpaceOnUse"
       gradientTransform="matrix(3.0710057,0,0,2.3628614,-33.010584,-21.34546)" />
    <linearGradient
       id="linearGradient11104-770">
      <stop
         id="stop3402"
         style="stop-color:#333;stop-opacity:1"
         offset="0" />
      <stop
         id="stop3404"
         style="stop-color:#333;stop-opacity:0.6122449"
         offset="1" />
    </linearGradient>
    <linearGradient
       x1="41.541653"
       y1="68.291702"
       x2="41.485142"
       y2="4.5362983"
       id="linearGradient2772"
       xlink:href="#linearGradient11104-770"
       gradientUnits="userSpaceOnUse"
       gradientTransform="matrix(0.4037708,0,0,0.399774,0.5399201,2.6759154)" />
    <linearGradient
       id="linearGradient2300-465">
      <stop
         id="stop3396"
         style="stop-color:#343434;stop-opacity:0.97647059"
         offset="0" />
      <stop
         id="stop3398"
         style="stop-color:#929292;stop-opacity:1"
         offset="1" />
    </linearGradient>
    <linearGradient
       x1="173.09576"
       y1="75.31868"
       x2="173.09576"
       y2="11.949074"
       id="linearGradient2770"
       xlink:href="#linearGradient2300-465"
       gradientUnits="userSpaceOnUse"
       gradientTransform="matrix(0.4037708,0,0,0.399774,-51.833663,-0.3327449)" />
    <linearGradient
       id="linearGradient6209-717">
      <stop
         id="stop3366"
         style="stop-color:#979797;stop-opacity:1"
         offset="0" />
      <stop
         id="stop3368"
         style="stop-color:black;stop-opacity:0.34117648"
         offset="1" />
    </linearGradient>
    <linearGradient
       x1="173.09576"
       y1="75.31868"
       x2="173.09576"
       y2="11.949074"
       id="linearGradient2768"
       xlink:href="#linearGradient6209-717"
       gradientUnits="userSpaceOnUse"
       gradientTransform="matrix(0.3845313,0,0,0.3807249,-48.396976,0.258476)" />
  </defs>
  <g
     id="layer1">
    <path
       d="m 73.25,4.625 a 10.625,3.625 0 1 1 -21.25,0 10.625,3.625 0 1 1 21.25,0 z"
       transform="matrix(2.149872,0,0,1.6619216,-110.63573,34.289147)"
       id="path8836"
       style="opacity:0.3;fill:url(#radialGradient2759);fill-opacity:1;fill-rule:evenodd;stroke:none;stroke-width:0.99999988;marker:none;visibility:visible;display:inline;overflow:visible" />
    <path
       d="m 28.183928,24.771802 17.601461,16.2194 -2.439808,3.278384 -17.537714,-17.545053 2.376061,-1.952731 z"
       id="path11112"
       style="fill:url(#linearGradient2780);fill-opacity:1;fill-rule:evenodd;stroke:url(#linearGradient2782);stroke-width:1.25790954;stroke-linecap:round;stroke-linejoin:round;stroke-miterlimit:4;stroke-opacity:1;stroke-dasharray:none;display:inline" />
    <path
       d="M 43.375247,43.204937 29.259227,25.777711 46.337872,40.616736 43.375247,43.204937 z"
       id="path11122"
       style="fill:url(#linearGradient2778);fill-opacity:1;fill-rule:evenodd;stroke:none;display:inline" />
    <path
       d="m 247.90924,110.29199 a 4.86685,2.6562012 0 1 1 -9.7337,0 4.86685,2.6562012 0 1 1 9.7337,0 z"
       transform="matrix(0.3701926,-0.4150383,0.4745098,0.3092893,-97.502604,109.5756)"
       id="path13082"
       style="fill:#3e3e3e;fill-opacity:1;stroke:none;display:inline" />
    <path
       d="m 25.897786,18.478292 a 8.3085051,8.3085051 0 1 1 -16.61701,0 8.3085051,8.3085051 0 1 1 16.61701,0 z"
       transform="matrix(1.4889549,0,0,1.4383688,-7.506469,-10.003202)"
       id="path4452"
       style="fill:url(#radialGradient2776);fill-opacity:1;fill-rule:evenodd;stroke:none;stroke-width:0.88163906;marker:none;visibility:visible;display:inline" />
    <path
       d="m 18.173574,6.2875092 c -6.167668,0 -11.1620724,4.4243448 -11.1620724,9.8880428 0,1.577938 0.1382919,3.207765 0.8807217,4.531967 1.4832709,0.484315 3.4184287,0.635856 5.0907577,0.635856 7.308643,0 13.594949,-5.367693 14.045982,-11.7419735 C 24.978875,7.4552716 21.59337,6.2875092 18.173574,6.2875092 z"
       id="path4462"
       style="opacity:0.83422457;fill:url(#radialGradient2774);fill-opacity:1;fill-rule:evenodd;stroke:none;stroke-width:1;marker:none;visibility:visible;display:inline;overflow:visible" />
    <path
       d="m 18.411216,4.6414839 c -7.597567,0 -13.7660654,5.6316951 -13.7660613,12.5678951 0,6.9362 6.1684943,12.567893 13.7660613,12.567894 7.59756,0 13.766059,-5.631694 13.766059,-12.567894 0,-6.9362 -6.168495,-12.5678951 -13.766059,-12.5678951 z m 0.16403,0.824534 c 6.799869,0 12.327628,5.0356991 12.327628,11.2436431 0,6.207944 -5.527759,11.243643 -12.327628,11.243643 -6.799871,1e-6 -12.3150081,-5.035698 -12.3150081,-11.243643 0,-6.207944 5.5151371,-11.2436431 12.3150081,-11.2436431 z"
       id="path2298"
       style="fill:url(#linearGradient2770);fill-opacity:1;stroke:url(#linearGradient2772);stroke-width:1.29022872;stroke-linecap:round;stroke-linejoin:round;stroke-miterlimit:4;stroke-opacity:1;stroke-dasharray:none;display:inline" />
    <path
       d="m 18.49954,5.0037791 c -7.235544,0 -13.0973151,5.3625389 -13.0973151,11.9682339 0,6.605694 5.8617671,11.968234 13.0973151,11.968233 7.235544,0 13.109932,-5.36254 13.109932,-11.968233 0,-6.605695 -5.874392,-11.9682339 -13.109932,-11.9682339 z m 0.07571,0.4622387 c 6.799867,0 11.788366,5.0356992 11.788366,11.2436432 0,6.207944 -4.988499,10.70972 -11.788366,10.70972 -6.799872,10e-7 -11.8656244,-4.501775 -11.8656244,-10.70972 0,-6.207944 5.0657524,-11.2436432 11.8656244,-11.2436432 z"
       id="path4267"
       style="fill:url(#linearGradient2768);fill-opacity:1;stroke:none;display:inline" />
  </g>
</svg>

<?xml version="1.0" encoding="UTF-8" standalone="no"?>
<!-- Created with Inkscape (http://www.inkscape.org/) -->
<svg
   xmlns:dc="http://purl.org/dc/elements/1.1/"
   xmlns:cc="http://creativecommons.org/ns#"
   xmlns:rdf="http://www.w3.org/1999/02/22-rdf-syntax-ns#"
   xmlns:svg="http://www.w3.org/2000/svg"
   xmlns="http://www.w3.org/2000/svg"
   xmlns:xlink="http://www.w3.org/1999/xlink"
   xmlns:sodipodi="http://sodipodi.sourceforge.net/DTD/sodipodi-0.dtd"
   xmlns:inkscape="http://www.inkscape.org/namespaces/inkscape"
   width="48px"
   height="48px"
   id="svg3294"
   sodipodi:version="0.32"
   inkscape:version="0.46"
   sodipodi:docname="gnome-searchtool.svg"
   inkscape:output_extension="org.inkscape.output.svg.inkscape">
  <defs
     id="defs3296">
    <linearGradient
       id="linearGradient8838">
      <stop
         id="stop8840"
         offset="0"
         style="stop-color:#7f7f7f;stop-opacity:1;" />
      <stop
         id="stop8842"
         offset="1"
         style="stop-color:#808080;stop-opacity:0;" />
    </linearGradient>
    <radialGradient
       inkscape:collect="always"
       xlink:href="#linearGradient8838"
       id="radialGradient2759"
       gradientUnits="userSpaceOnUse"
       gradientTransform="matrix(1,0,0,0.341176,0,3.047059)"
       cx="62.625"
       cy="4.625"
       fx="62.625"
       fy="4.625"
       r="10.625" />
    <linearGradient
       id="linearGradient3277-442">
      <stop
         id="stop3378"
         offset="0"
         style="stop-color:#575757;stop-opacity:1;" />
      <stop
         id="stop3380"
         offset="1"
         style="stop-color:#333333;stop-opacity:1;" />
    </linearGradient>
    <linearGradient
       inkscape:collect="always"
       xlink:href="#linearGradient3277-442"
       id="linearGradient2782"
       gradientUnits="userSpaceOnUse"
       x1="32.892574"
       y1="27.988184"
       x2="31.364458"
       y2="29.484051"
       gradientTransform="matrix(1.0113456,0,0,1.0013346,-0.1475723,1.8143278)" />
    <linearGradient
       id="linearGradient11114-516">
      <stop
         id="stop3372"
         offset="0"
         style="stop-color:#242424;stop-opacity:0.99215686;" />
      <stop
         id="stop3374"
         offset="1"
         style="stop-color:#656565;stop-opacity:1;" />
    </linearGradient>
    <linearGradient
       inkscape:collect="always"
       xlink:href="#linearGradient11114-516"
       id="linearGradient2780"
       gradientUnits="userSpaceOnUse"
       gradientTransform="matrix(0.3936567,0,0,0.38976,101.37812,-4.2393119)"
       x1="-172.65306"
       y1="99.667191"
       x2="-164.71831"
       y2="91.972626" />
    <linearGradient
       id="linearGradient12093-170"
       inkscape:collect="always">
      <stop
         id="stop3384"
         offset="0"
         style="stop-color:#ffffff;stop-opacity:1;" />
      <stop
         id="stop3386"
         offset="1"
         style="stop-color:#ffffff;stop-opacity:0;" />
    </linearGradient>
    <linearGradient
       inkscape:collect="always"
       xlink:href="#linearGradient12093-170"
       id="linearGradient2778"
       gradientUnits="userSpaceOnUse"
       gradientTransform="matrix(0.3936567,0,0,0.38976,-50.208746,-0.4726547)"
       x1="277.573"
       y1="146.1507"
       x2="201.87128"
       y2="67.350082" />
    <linearGradient
       id="linearGradient4454-600">
      <stop
         style="stop-color:#a1a1a1;stop-opacity:0.20784314;"
         offset="0"
         id="stop3408" />
      <stop
         style="stop-color:#a1a1a1;stop-opacity:0.67843139;"
         offset="1"
         id="stop3410" />
    </linearGradient>
    <radialGradient
       inkscape:collect="always"
       xlink:href="#linearGradient4454-600"
       id="radialGradient2776"
       gradientUnits="userSpaceOnUse"
       cx="18.240929"
       cy="21.817987"
       fx="18.240929"
       fy="21.817987"
       r="8.3085051" />
    <linearGradient
       id="linearGradient4467-402">
      <stop
         style="stop-color:#ffffff;stop-opacity:1;"
         offset="0"
         id="stop3390" />
      <stop
         style="stop-color:#ffffff;stop-opacity:0.24761905;"
         offset="1.0000000"
         id="stop3392" />
    </linearGradient>
    <radialGradient
       inkscape:collect="always"
       xlink:href="#linearGradient4467-402"
       id="radialGradient2774"
       gradientUnits="userSpaceOnUse"
       gradientTransform="matrix(3.0710057,0,0,2.3628614,-33.010584,-21.34546)"
       cx="15.414371"
       cy="13.078408"
       fx="15.414371"
       fy="13.078408"
       r="6.65625" />
    <linearGradient
       id="linearGradient11104-770">
      <stop
         id="stop3402"
         offset="0"
         style="stop-color:#333333;stop-opacity:1;" />
      <stop
         id="stop3404"
         offset="1"
         style="stop-color:#333333;stop-opacity:0.6122449;" />
    </linearGradient>
    <linearGradient
       inkscape:collect="always"
       xlink:href="#linearGradient11104-770"
       id="linearGradient2772"
       gradientUnits="userSpaceOnUse"
       gradientTransform="matrix(0.4037708,0,0,0.399774,0.5399201,2.6759154)"
       x1="41.541653"
       y1="68.291702"
       x2="41.485142"
       y2="4.5362983" />
    <linearGradient
       id="linearGradient2300-465">
      <stop
         id="stop3396"
         offset="0"
         style="stop-color:#343434;stop-opacity:0.97647059" />
      <stop
         id="stop3398"
         offset="1"
         style="stop-color:#929292;stop-opacity:1" />
    </linearGradient>
    <linearGradient
       inkscape:collect="always"
       xlink:href="#linearGradient2300-465"
       id="linearGradient2770"
       gradientUnits="userSpaceOnUse"
       gradientTransform="matrix(0.4037708,0,0,0.399774,-51.833663,-0.3327449)"
       x1="173.09576"
       y1="75.31868"
       x2="173.09576"
       y2="11.949074" />
    <linearGradient
       id="linearGradient6209-717">
      <stop
         style="stop-color:#979797;stop-opacity:1"
         offset="0"
         id="stop3366" />
      <stop
         style="stop-color:#000000;stop-opacity:0.34117648"
         offset="1"
         id="stop3368" />
    </linearGradient>
    <linearGradient
       inkscape:collect="always"
       xlink:href="#linearGradient6209-717"
       id="linearGradient2768"
       gradientUnits="userSpaceOnUse"
       gradientTransform="matrix(0.3845313,0,0,0.3807249,-48.396976,0.258476)"
       x1="173.09576"
       y1="75.31868"
       x2="173.09576"
       y2="11.949074" />
  </defs>
  <sodipodi:namedview
     id="base"
     pagecolor="#ffffff"
     bordercolor="#666666"
     borderopacity="1.0"
     inkscape:pageopacity="0.0"
     inkscape:pageshadow="2"
     inkscape:zoom="7"
     inkscape:cx="24"
     inkscape:cy="24"
     inkscape:current-layer="layer1"
     showgrid="true"
     inkscape:grid-bbox="true"
     inkscape:document-units="px"
     inkscape:window-width="640"
     inkscape:window-height="720"
     inkscape:window-x="0"
     inkscape:window-y="88" />
  <metadata
     id="metadata3299">
    <rdf:RDF>
      <cc:Work
         rdf:about="">
        <dc:format>image/svg+xml</dc:format>
        <dc:type
           rdf:resource="http://purl.org/dc/dcmitype/StillImage" />
      </cc:Work>
    </rdf:RDF>
  </metadata>
  <g
     id="layer1"
     inkscape:label="Layer 1"
     inkscape:groupmode="layer">
    <path
       transform="matrix(2.149872,0,0,1.6619216,-110.63573,34.289147)"
       d="M 73.25,4.625 A 10.625,3.625 0 1 1 52,4.625 A 10.625,3.625 0 1 1 73.25,4.625 z"
       sodipodi:ry="3.625"
       sodipodi:rx="10.625"
       sodipodi:cy="4.625"
       sodipodi:cx="62.625"
       id="path8836"
       style="display:inline;opacity:0.29999999999999999;fill:url(#radialGradient2759);fill-opacity:1;fill-rule:evenodd;stroke:none;stroke-width:0.99999987999999995;stroke-linecap:butt;stroke-linejoin:round;marker:none;marker-start:none;marker-mid:none;marker-end:none;stroke-miterlimit:4;stroke-dasharray:none;stroke-dashoffset:0;stroke-opacity:1;visibility:visible;overflow:visible"
       sodipodi:type="arc" />
    <path
       sodipodi:nodetypes="ccccc"
       id="path11112"
       d="M 28.183928,24.771802 L 45.785389,40.991202 L 43.345581,44.269586 L 25.807867,26.724533 L 28.183928,24.771802 z"
       style="display:inline;fill:url(#linearGradient2780);fill-opacity:1;fill-rule:evenodd;stroke:url(#linearGradient2782);stroke-width:1.25790953999999999;stroke-linecap:round;stroke-linejoin:round;stroke-miterlimit:4;stroke-dasharray:none;stroke-opacity:1" />
    <path
       id="path11122"
       d="M 43.375247,43.204937 L 29.259227,25.777711 L 46.337872,40.616736 L 43.375247,43.204937 z"
       style="display:inline;fill:url(#linearGradient2778);fill-opacity:1;fill-rule:evenodd;stroke:none;stroke-width:3.21138214999999994;stroke-linecap:butt;stroke-linejoin:miter;stroke-miterlimit:4;stroke-dasharray:none;stroke-opacity:1" />
    <path
       transform="matrix(0.3701926,-0.4150383,0.4745098,0.3092893,-97.502604,109.5756)"
       d="M 247.90924,110.29199 A 4.8668494,2.6562009 0 1 1 238.17554,110.29199 A 4.8668494,2.6562009 0 1 1 247.90924,110.29199 z"
       sodipodi:ry="2.6562009"
       sodipodi:rx="4.8668494"
       sodipodi:cy="110.29199"
       sodipodi:cx="243.04239"
       id="path13082"
       style="display:inline;fill:#3e3e3e;fill-opacity:1;stroke:none;stroke-width:3.00453590999999998;stroke-linecap:round;stroke-linejoin:round;stroke-miterlimit:4;stroke-dasharray:none;stroke-opacity:1"
       sodipodi:type="arc" />
    <path
       sodipodi:type="arc"
       style="display:inline;fill:url(#radialGradient2776);fill-opacity:1;fill-rule:evenodd;stroke:none;stroke-width:0.88163906000000003;stroke-linecap:round;stroke-linejoin:miter;marker:none;marker-start:none;marker-mid:none;marker-end:none;stroke-miterlimit:4;stroke-dasharray:none;stroke-dashoffset:0;stroke-opacity:1;visibility:visible"
       id="path4452"
       sodipodi:cx="17.589281"
       sodipodi:cy="18.478292"
       sodipodi:rx="8.3085051"
       sodipodi:ry="8.3085051"
       d="M 25.897786,18.478292 A 8.3085051,8.3085051 0 1 1 9.280776,18.478292 A 8.3085051,8.3085051 0 1 1 25.897786,18.478292 z"
       transform="matrix(1.4889549,0,0,1.4383688,-7.506469,-10.003202)" />
    <path
       sodipodi:nodetypes="cscscc"
       style="display:inline;opacity:0.83422457000000005;fill:url(#radialGradient2774);fill-opacity:1;fill-rule:evenodd;stroke:none;stroke-width:1;stroke-linecap:round;stroke-linejoin:miter;marker:none;marker-start:none;marker-mid:none;marker-end:none;stroke-miterlimit:10;stroke-dasharray:none;stroke-dashoffset:0;stroke-opacity:1;visibility:visible;overflow:visible"
       d="M 18.173574,6.2875092 C 12.005906,6.2875092 7.0115016,10.711854 7.0115016,16.175552 C 7.0115016,17.75349 7.1497935,19.383317 7.8922233,20.707519 C 9.3754942,21.191834 11.310652,21.343375 12.982981,21.343375 C 20.291624,21.343375 26.57793,15.975682 27.028963,9.6014015 C 24.978875,7.4552716 21.59337,6.2875092 18.173574,6.2875092 z"
       id="path4462" />
    <path
       id="path2298"
       d="M 18.411216,4.6414839 C 10.813649,4.6414839 4.6451506,10.273179 4.6451547,17.209379 C 4.6451547,24.145579 10.813649,29.777272 18.411216,29.777273 C 26.008776,29.777273 32.177275,24.145579 32.177275,17.209379 C 32.177275,10.273179 26.00878,4.6414839 18.411216,4.6414839 z M 18.575246,5.4660179 C 25.375115,5.4660179 30.902874,10.501717 30.902874,16.709661 C 30.902874,22.917605 25.375115,27.953304 18.575246,27.953304 C 11.775375,27.953305 6.2602379,22.917606 6.2602379,16.709661 C 6.2602379,10.501717 11.775375,5.4660179 18.575246,5.4660179 z"
       style="display:inline;fill:url(#linearGradient2770);fill-opacity:1;stroke:url(#linearGradient2772);stroke-width:1.29022872000000000;stroke-linecap:round;stroke-linejoin:round;stroke-miterlimit:4;stroke-dasharray:none;stroke-opacity:1" />
    <path
       sodipodi:nodetypes="csssccsssc"
       id="path4267"
       d="M 18.49954,5.0037791 C 11.263996,5.0037791 5.4022249,10.366318 5.4022249,16.972013 C 5.4022249,23.577707 11.263992,28.940247 18.49954,28.940246 C 25.735084,28.940246 31.609472,23.577706 31.609472,16.972013 C 31.609472,10.366318 25.73508,5.0037791 18.49954,5.0037791 z M 18.575247,5.4660178 C 25.375114,5.4660178 30.363613,10.501717 30.363613,16.709661 C 30.363613,22.917605 25.375114,27.419381 18.575247,27.419381 C 11.775375,27.419382 6.7096226,22.917606 6.7096226,16.709661 C 6.7096226,10.501717 11.775375,5.4660178 18.575247,5.4660178 z"
       style="display:inline;fill:url(#linearGradient2768);fill-opacity:1;stroke:none;stroke-width:3.21138214999999994;stroke-linecap:round;stroke-linejoin:round;stroke-miterlimit:4;stroke-dasharray:none;stroke-opacity:1" />
  </g>
</svg>
